X: 1441
T: Frank Collins 2nd Old Time Polka
B: australian traditional tunes wiki
M:2/4
L:1/8
R: Polka
Q: 1/4=100
K:D
V:1 
e/|"D"fa ag|fa a>f|"G"ba f/a/d/d/|"A7"ed "D"d>e|
"D"fa ag|fa a>f|"G"ba f/a/d/d/|"A7"ed "D"d>B|
"D"AA A/g/f/e/|"G"dB B>B|"D"AA d/c/d/e/|"A7"fe e>A|
"D"AA A/g/f/e/|"G"dB B>B|"D"AA Ac/d/|"A7"ed "D"d3/2||
% abcbook-tune_id 6342d53ae5b1a0f422f5e802


% abcbook-boost 0
% abcbook-tablature 
% abcbook-transpose 
% abcbook-lastupdated 1665324365218
% abcbook-soundfonts 
% abcbook-repeats 1
% NFF Book 2009

